;FLAVOR:Marlin
;TIME:2397
;Filament used: 0.443729m
;Layer height: 0.1
;Generated with Cura_SteamEngine 3.6.0
M140 S60
M105
M190 S60
M104 S200
M105
M109 S200
M82 ;absolute extrusion mode
G21 ;metric values
G90 ;absolute positioning
M82 ;set extruder to absolute mode
M107 ;start with the fan off
G28 X0 Y0 ;move X/Y to min endstops
G28 Z0 ;move Z to min endstops
G1 Z15.0 F225 ;move the platform down 15mm
G92 E0 ;zero the extruded length
G1 F140 E30 ;extrude 3mm of feed stock
G1 X20 Y0 F140 E30
G92 E0 ;zero the extruded length again
G1 F225
M117 ;Printing...
G92 E0
G1 F1500 E-6.5
;LAYER_COUNT:79
;LAYER:0
M107
G0 F3600 X75.821 Y86.963 Z0.3
;TYPE:SKIRT
G1 F1500 E0
G1 F1800 X76.542 Y86.354 E0.01775
G1 X77.519 Y85.625 E0.04068
G1 X78.322 Y85.099 E0.05874
G1 X79.38 Y84.496 E0.08165
G1 X80.227 Y84.079 E0.09941
G1 X81.351 Y83.608 E0.12233
G1 X82.094 Y83.34 E0.13719
G1 X82.482 Y83.233 E0.14476
G1 X84.254 Y82.792 E0.17911
G1 X85.029 Y82.64 E0.19396
G1 X85.427 Y82.594 E0.2015
G1 X86.639 Y82.483 E0.22439
G1 X87.587 Y82.454 E0.24223
G1 X88.805 Y82.491 E0.26516
G1 X89.592 Y82.554 E0.28001
G1 X89.987 Y82.617 E0.28753
G1 X91.782 Y82.949 E0.32187
G1 X92.55 Y83.132 E0.33672
G1 X92.935 Y83.255 E0.34432
G1 X94.086 Y83.657 E0.36726
G1 X94.961 Y84.024 E0.38511
G1 X96.053 Y84.562 E0.408
G1 X96.873 Y85.03 E0.42576
G1 X97.892 Y85.696 E0.44866
G1 X98.663 Y86.27 E0.46674
G1 X99.592 Y87.056 E0.48963
G1 X100.274 Y87.708 E0.50738
G1 X100.383 Y87.825 E0.51039
G1 X100.403 Y87.803 E0.51095
G1 X101.283 Y86.963 E0.53383
G1 X102.001 Y86.356 E0.55152
G1 X102.977 Y85.627 E0.57443
G1 X103.785 Y85.098 E0.5926
G1 X104.844 Y84.495 E0.61552
G1 X105.689 Y84.079 E0.63324
G1 X106.813 Y83.608 E0.65617
G1 X107.556 Y83.34 E0.67102
G1 X107.944 Y83.233 E0.67859
G1 X109.716 Y82.792 E0.71294
G1 X110.491 Y82.64 E0.7278
G1 X110.889 Y82.594 E0.73534
G1 X112.101 Y82.483 E0.75823
G1 X113.049 Y82.454 E0.77607
G1 X114.267 Y82.491 E0.79899
G1 X115.054 Y82.554 E0.81384
G1 X115.449 Y82.617 E0.82137
G1 X117.243 Y82.949 E0.85569
G1 X118.012 Y83.132 E0.87056
G1 X118.394 Y83.255 E0.8781
G1 X119.546 Y83.657 E0.90106
G1 X120.423 Y84.024 E0.91894
G1 X121.515 Y84.562 E0.94184
G1 X122.338 Y85.032 E0.95967
G1 X123.356 Y85.698 E0.98255
G1 X124.121 Y86.268 E1.00049
G1 X125.051 Y87.054 E1.0234
G1 X125.736 Y87.708 E1.04121
G1 X126.563 Y88.6 E1.06409
G1 X127.167 Y89.337 E1.08202
G1 X127.881 Y90.326 E1.10496
G1 X128.39 Y91.13 E1.12286
G1 X128.977 Y92.196 E1.14575
G1 X129.385 Y93.058 E1.16369
G1 X129.838 Y94.189 E1.18661
G1 X130.094 Y94.936 E1.20147
G1 X130.193 Y95.318 E1.20889
G1 X130.607 Y97.094 E1.24319
G1 X130.747 Y97.871 E1.25804
G1 X130.788 Y98.27 E1.26559
G1 X130.881 Y99.486 E1.28853
G1 X130.896 Y100.44 E1.30648
G1 X130.84 Y101.656 E1.32937
G1 X130.696 Y102.83 E1.35162
G1 X130.337 Y104.621 E1.38598
G1 X130.143 Y105.386 E1.40083
G1 X130.012 Y105.773 E1.40851
G1 X129.593 Y106.916 E1.43141
G1 X129.212 Y107.788 E1.44931
G1 X128.657 Y108.871 E1.4722
G1 X128.182 Y109.675 E1.48977
G1 X127.501 Y110.685 E1.51268
G1 X127.027 Y111.316 E1.52753
G1 X126.755 Y111.626 E1.53529
G1 X125.514 Y112.965 E1.56963
G1 X124.948 Y113.516 E1.58449
G1 X124.641 Y113.773 E1.59202
G1 X123.687 Y114.53 E1.61493
G1 X122.914 Y115.071 E1.63267
G1 X121.876 Y115.707 E1.65557
G1 X121.183 Y116.085 E1.67042
G1 X120.812 Y116.252 E1.67808
G1 X119.127 Y116.957 E1.71243
G1 X118.384 Y117.224 E1.72729
G1 X118 Y117.33 E1.73478
G1 X116.819 Y117.624 E1.75767
G1 X115.876 Y117.798 E1.77571
G1 X114.667 Y117.945 E1.79862
G1 X113.732 Y118.002 E1.81624
G1 X112.513 Y118.003 E1.83917
G1 X111.725 Y117.964 E1.85401
G1 X111.32 Y117.912 E1.86169
G1 X109.514 Y117.634 E1.89606
G1 X108.741 Y117.475 E1.91091
G1 X108.36 Y117.365 E1.91837
G1 X107.2 Y117 E1.94124
G1 X106.46 Y116.726 E1.95609
G1 X106.094 Y116.557 E1.96367
G1 X104.458 Y115.751 E1.99798
G1 X103.445 Y115.153 E2.0201
G1 X102.445 Y114.456 E2.04303
G1 X101.821 Y113.972 E2.05789
G1 X101.513 Y113.693 E2.0657
G1 X100.397 Y112.625 E2.09476
G1 X99.993 Y113.035 E2.10559
G1 X99.089 Y113.85 E2.12848
G1 X98.329 Y114.454 E2.14674
G1 X97.33 Y115.151 E2.16966
G1 X96.312 Y115.752 E2.19189
G1 X94.675 Y116.558 E2.22622
G1 X93.95 Y116.87 E2.24106
G1 X93.571 Y117 E2.2486
G1 X92.411 Y117.365 E2.27148
G1 X91.495 Y117.594 E2.28924
G1 X90.295 Y117.817 E2.3122
G1 X89.338 Y117.934 E2.33033
G1 X88.123 Y118.007 E2.35323
G1 X87.187 Y118.007 E2.37083
G1 X85.972 Y117.934 E2.39373
G1 X85.187 Y117.847 E2.40859
G1 X84.791 Y117.772 E2.41617
G1 X83.007 Y117.386 E2.4505
G1 X82.244 Y117.18 E2.46537
G1 X81.858 Y117.043 E2.47307
G1 X80.721 Y116.606 E2.49599
G1 X79.863 Y116.215 E2.51372
G1 X78.787 Y115.644 E2.53664
G1 X77.98 Y115.151 E2.55443
G1 X76.981 Y114.454 E2.57734
G1 X76.357 Y113.97 E2.59219
G1 X76.054 Y113.695 E2.59989
G1 X74.734 Y112.433 E2.63424
G1 X74.191 Y111.859 E2.64911
G1 X73.941 Y111.55 E2.65658
G1 X73.198 Y110.584 E2.67951
G1 X72.664 Y109.794 E2.69744
G1 X72.046 Y108.747 E2.72031
G1 X71.616 Y107.907 E2.73806
G1 X71.128 Y106.791 E2.76098
G1 X70.849 Y106.052 E2.77583
G1 X70.736 Y105.665 E2.78342
G1 X70.268 Y103.9 E2.81777
G1 X70.104 Y103.128 E2.83261
G1 X70.052 Y102.735 E2.84007
G1 X69.922 Y101.526 E2.86294
G1 X69.878 Y100.571 E2.88093
G1 X69.897 Y99.351 E2.90388
G1 X70.005 Y98.172 E2.92615
G1 X70.309 Y96.373 E2.96047
G1 X70.48 Y95.602 E2.97532
G1 X70.597 Y95.216 E2.98291
G1 X70.981 Y94.059 E3.00584
G1 X71.332 Y93.182 E3.02361
G1 X71.852 Y92.082 E3.0465
G1 X72.315 Y91.241 E3.06456
G1 X72.967 Y90.212 E3.08747
G1 X73.52 Y89.447 E3.10523
G1 X74.291 Y88.505 E3.12812
G1 X74.941 Y87.803 E3.14612
G1 X75.821 Y86.963 E3.169
G0 F3600 X76.097 Y87.252
G1 F1800 X76.782 Y86.674 E3.18586
G1 X77.759 Y85.945 E3.20879
G1 X78.52 Y85.447 E3.2259
G1 X79.578 Y84.844 E3.24881
G1 X80.382 Y84.448 E3.26567
G1 X81.506 Y83.977 E3.28859
G1 X82.579 Y83.621 E3.30986
G1 X84.351 Y83.18 E3.34421
G1 X85.463 Y82.992 E3.36542
G1 X86.675 Y82.881 E3.38831
G1 X87.575 Y82.853 E3.40525
G1 X88.793 Y82.89 E3.42817
G1 X89.914 Y83.01 E3.44938
G1 X91.709 Y83.342 E3.48372
G1 X92.803 Y83.633 E3.50501
G1 X93.954 Y84.035 E3.52795
G1 X94.784 Y84.383 E3.54488
G1 X95.876 Y84.921 E3.56778
G1 X96.654 Y85.365 E3.58463
G1 X97.673 Y86.031 E3.60752
G1 X98.405 Y86.576 E3.62469
G1 X99.334 Y87.362 E3.64758
G1 X99.981 Y87.98 E3.66441
G1 X100.382 Y88.413 E3.67551
G1 X100.679 Y88.092 E3.68374
G1 X101.559 Y87.252 E3.70662
G1 X102.241 Y86.676 E3.72341
G1 X103.217 Y85.947 E3.74633
G1 X103.983 Y85.445 E3.76356
G1 X105.042 Y84.842 E3.78648
G1 X105.844 Y84.448 E3.80329
G1 X106.968 Y83.977 E3.82621
G1 X108.041 Y83.621 E3.84748
G1 X109.813 Y83.18 E3.88183
G1 X110.925 Y82.992 E3.90304
G1 X112.137 Y82.881 E3.92594
G1 X113.037 Y82.853 E3.94287
G1 X114.255 Y82.89 E3.9658
G1 X115.377 Y83.011 E3.98702
G1 X117.171 Y83.343 E4.02134
G1 X118.262 Y83.632 E4.04257
G1 X119.414 Y84.034 E4.06552
G1 X120.246 Y84.383 E4.0825
G1 X121.338 Y84.921 E4.10539
G1 X122.119 Y85.366 E4.1223
G1 X123.137 Y86.032 E4.14519
G1 X123.863 Y86.573 E4.16222
G1 X124.793 Y87.359 E4.18512
G1 X125.443 Y87.98 E4.20203
G1 X126.27 Y88.872 E4.22491
G1 X126.843 Y89.571 E4.24191
G1 X127.557 Y90.56 E4.26486
G1 X128.039 Y91.323 E4.28184
G1 X128.626 Y92.389 E4.30473
G1 X129.013 Y93.207 E4.32175
G1 X129.466 Y94.338 E4.34467
G1 X129.804 Y95.409 E4.36579
G1 X130.218 Y97.185 E4.4001
G1 X130.389 Y98.301 E4.42133
G1 X130.482 Y99.517 E4.44427
G1 X130.496 Y100.421 E4.46128
G1 X130.44 Y101.637 E4.48418
G1 X130.304 Y102.751 E4.50529
G1 X129.945 Y104.542 E4.53965
G1 X129.637 Y105.635 E4.56101
G1 X129.218 Y106.778 E4.58391
G1 X128.856 Y107.606 E4.60091
G1 X128.301 Y108.689 E4.6238
G1 X127.851 Y109.451 E4.64045
G1 X127.17 Y110.461 E4.66336
G1 X126.461 Y111.354 E4.68481
G1 X125.22 Y112.693 E4.71915
G1 X124.393 Y113.46 E4.74037
G1 X123.439 Y114.217 E4.76327
G1 X122.705 Y114.73 E4.78012
G1 X121.667 Y115.366 E4.80302
G1 X120.657 Y115.883 E4.82436
G1 X118.972 Y116.588 E4.85872
G1 X117.904 Y116.942 E4.87988
G1 X116.723 Y117.236 E4.90278
G1 X115.828 Y117.401 E4.9199
G1 X114.619 Y117.548 E4.94281
G1 X113.732 Y117.602 E4.95952
G1 X112.513 Y117.603 E4.98245
G1 X111.381 Y117.517 E5.00381
G1 X109.575 Y117.239 E5.03818
G1 X108.48 Y116.984 E5.05933
G1 X107.32 Y116.619 E5.0822
G1 X106.271 Y116.198 E5.10346
G1 X104.635 Y115.392 E5.13777
G1 X103.674 Y114.825 E5.15876
G1 X102.674 Y114.128 E5.18169
G1 X101.789 Y113.404 E5.2032
G1 X100.47 Y112.142 E5.23754
G1 X100.392 Y112.055 E5.23973
G1 X100.34 Y112.114 E5.24121
G1 X99.725 Y112.738 E5.25769
G1 X98.821 Y113.553 E5.28059
G1 X98.1 Y114.126 E5.29791
G1 X97.101 Y114.823 E5.32083
G1 X96.136 Y115.393 E5.34191
G1 X94.499 Y116.199 E5.37623
G1 X93.451 Y116.619 E5.39747
G1 X92.291 Y116.984 E5.42034
G1 X91.422 Y117.2 E5.43719
G1 X90.222 Y117.423 E5.46015
G1 X89.314 Y117.535 E5.47736
G1 X88.099 Y117.608 E5.50025
G1 X87.211 Y117.608 E5.51696
G1 X85.996 Y117.535 E5.53985
G1 X84.875 Y117.381 E5.56114
G1 X83.091 Y116.995 E5.59547
G1 X82.001 Y116.669 E5.61687
G1 X80.864 Y116.232 E5.63978
G1 X80.05 Y115.862 E5.6566
G1 X78.974 Y115.291 E5.67952
G1 X78.209 Y114.823 E5.69639
G1 X77.21 Y114.126 E5.7193
G1 X76.33 Y113.406 E5.74069
G1 X75.01 Y112.144 E5.77504
G1 X74.258 Y111.307 E5.79621
G1 X73.515 Y110.341 E5.81913
G1 X73.008 Y109.591 E5.83616
G1 X72.39 Y108.544 E5.85903
G1 X71.983 Y107.747 E5.87586
G1 X71.495 Y106.631 E5.89877
G1 X71.122 Y105.563 E5.92005
G1 X70.654 Y103.798 E5.9544
G1 X70.449 Y102.692 E5.97556
G1 X70.319 Y101.483 E5.99843
G1 X70.278 Y100.577 E6.01549
G1 X70.297 Y99.357 E6.03845
G1 X70.399 Y98.239 E6.05956
G1 X70.703 Y96.44 E6.09388
G1 X70.977 Y95.342 E6.11517
G1 X71.361 Y94.185 E6.1381
G1 X71.694 Y93.353 E6.15496
G1 X72.214 Y92.253 E6.17785
G1 X72.653 Y91.455 E6.19498
G1 X73.305 Y90.426 E6.21789
G1 X73.83 Y89.7 E6.23475
G1 X74.601 Y88.758 E6.25764
G1 X75.217 Y88.092 E6.27471
G1 X76.097 Y87.252 E6.29759
G0 F3600 X76.374 Y87.542
G1 F1800 X77.021 Y86.995 E6.31353
G1 X77.998 Y86.266 E6.33646
G1 X78.718 Y85.794 E6.35265
G1 X79.776 Y85.191 E6.37556
G1 X80.537 Y84.817 E6.39151
G1 X81.661 Y84.346 E6.41444
G1 X82.675 Y84.009 E6.43454
G1 X84.447 Y83.568 E6.46888
G1 X85.5 Y83.39 E6.48897
G1 X86.712 Y83.279 E6.51187
G1 X87.563 Y83.253 E6.52788
G1 X88.781 Y83.29 E6.5508
G1 X89.841 Y83.404 E6.57086
G1 X91.636 Y83.736 E6.6052
G1 X92.671 Y84.01 E6.62534
G1 X93.822 Y84.412 E6.64827
G1 X94.608 Y84.742 E6.6643
G1 X95.7 Y85.28 E6.6872
G1 X96.436 Y85.7 E6.70314
G1 X97.455 Y86.366 E6.72604
G1 X98.146 Y86.881 E6.74225
G1 X99.075 Y87.667 E6.76514
G1 X99.687 Y88.252 E6.78107
G1 X100.381 Y89.001 E6.80028
G1 X100.956 Y88.382 E6.81617
G1 X101.836 Y87.542 E6.83905
G1 X102.48 Y86.997 E6.85492
G1 X103.456 Y86.268 E6.87784
G1 X104.181 Y85.793 E6.89414
G1 X105.24 Y85.19 E6.91706
G1 X105.999 Y84.817 E6.93297
G1 X107.123 Y84.346 E6.9559
G1 X108.137 Y84.009 E6.976
G1 X109.909 Y83.568 E7.01035
G1 X110.962 Y83.39 E7.03043
G1 X112.174 Y83.279 E7.05333
G1 X113.025 Y83.253 E7.06934
G1 X114.243 Y83.29 E7.09227
G1 X115.304 Y83.404 E7.11234
G1 X117.098 Y83.736 E7.14666
G1 X118.13 Y84.01 E7.16674
G1 X119.282 Y84.412 E7.18969
G1 X120.07 Y84.742 E7.20576
G1 X121.162 Y85.28 E7.22866
G1 X121.9 Y85.701 E7.24464
G1 X122.918 Y86.367 E7.26753
G1 X123.605 Y86.879 E7.28364
G1 X124.535 Y87.665 E7.30655
G1 X125.149 Y88.252 E7.32253
G1 X125.976 Y89.144 E7.34541
G1 X126.519 Y89.806 E7.36151
G1 X127.233 Y90.795 E7.38446
G1 X127.689 Y91.515 E7.40049
G1 X128.276 Y92.581 E7.42338
G1 X128.642 Y93.355 E7.43949
G1 X129.095 Y94.486 E7.46241
G1 X129.414 Y95.5 E7.4824
G1 X129.828 Y97.276 E7.5167
G1 X129.991 Y98.331 E7.53678
G1 X130.084 Y99.547 E7.55972
G1 X130.097 Y100.403 E7.57583
G1 X130.041 Y101.619 E7.59873
G1 X129.911 Y102.673 E7.6187
G1 X129.552 Y104.464 E7.65306
G1 X129.261 Y105.497 E7.67325
G1 X128.842 Y106.64 E7.69615
G1 X128.5 Y107.423 E7.71222
G1 X127.945 Y108.506 E7.73511
G1 X127.519 Y109.227 E7.75087
G1 X126.838 Y110.237 E7.77378
G1 X126.168 Y111.082 E7.79407
G1 X124.927 Y112.421 E7.82841
G1 X124.144 Y113.146 E7.84848
G1 X123.19 Y113.903 E7.87139
G1 X122.496 Y114.389 E7.88733
G1 X121.458 Y115.025 E7.91022
G1 X120.503 Y115.514 E7.93041
G1 X118.818 Y116.219 E7.96476
G1 X117.807 Y116.554 E7.9848
G1 X116.626 Y116.848 E8.00769
G1 X115.78 Y117.004 E8.02387
G1 X114.571 Y117.151 E8.04678
G1 X113.732 Y117.202 E8.0626
G1 X112.513 Y117.203 E8.08553
G1 X111.442 Y117.122 E8.10573
G1 X109.636 Y116.844 E8.1401
G1 X108.6 Y116.602 E8.16011
G1 X107.44 Y116.237 E8.18299
G1 X106.447 Y115.839 E8.20311
G1 X104.811 Y115.033 E8.23742
G1 X103.902 Y114.497 E8.25727
G1 X102.902 Y113.8 E8.2802
G1 X102.066 Y113.115 E8.30053
G1 X100.747 Y111.853 E8.33487
G1 X100.387 Y111.453 E8.34499
G1 X100.039 Y111.851 E8.35493
G1 X99.457 Y112.441 E8.37052
G1 X98.553 Y113.256 E8.39342
G1 X97.871 Y113.798 E8.4098
G1 X96.872 Y114.495 E8.43272
G1 X95.959 Y115.034 E8.45266
G1 X94.322 Y115.84 E8.48698
G1 X93.331 Y116.237 E8.50707
G1 X92.171 Y116.602 E8.52994
G1 X91.349 Y116.807 E8.54588
G1 X90.149 Y117.03 E8.56884
G1 X89.29 Y117.135 E8.58511
G1 X88.075 Y117.208 E8.60801
G1 X87.235 Y117.208 E8.62381
G1 X86.02 Y117.135 E8.64671
G1 X84.96 Y116.99 E8.66683
G1 X83.176 Y116.604 E8.70117
G1 X82.145 Y116.296 E8.72141
G1 X81.008 Y115.859 E8.74432
G1 X80.238 Y115.508 E8.76024
G1 X79.162 Y114.937 E8.78315
G1 X78.438 Y114.495 E8.79911
G1 X77.439 Y113.798 E8.82202
G1 X76.607 Y113.117 E8.84225
G1 X75.287 Y111.855 E8.8766
G1 X74.575 Y111.063 E8.89663
G1 X73.832 Y110.097 E8.91955
G1 X73.353 Y109.387 E8.93567
G1 X72.735 Y108.34 E8.95854
G1 X72.349 Y107.587 E8.97445
G1 X71.861 Y106.471 E8.99736
G1 X71.509 Y105.46 E9.0175
G1 X71.041 Y103.695 E9.05185
G1 X70.847 Y102.649 E9.07186
G1 X70.717 Y101.44 E9.09473
G1 X70.678 Y100.583 E9.11087
G1 X70.697 Y99.363 E9.13382
G1 X70.794 Y98.306 E9.15379
G1 X71.098 Y96.507 E9.18811
G1 X71.356 Y95.468 E9.20825
G1 X71.74 Y94.311 E9.23118
G1 X72.055 Y93.524 E9.24712
G1 X72.575 Y92.424 E9.27001
G1 X72.991 Y91.669 E9.28623
G1 X73.643 Y90.64 E9.30914
G1 X74.139 Y89.953 E9.32508
G1 X74.91 Y89.011 E9.34798
G1 X75.494 Y88.382 E9.36412
G1 X76.374 Y87.542 E9.38701
G0 F3600 X76.65 Y87.831
G1 F1800 X77.26 Y87.315 E9.40204
G1 X78.237 Y86.586 E9.42497
G1 X78.916 Y86.142 E9.44023
G1 X79.974 Y85.539 E9.46313
G1 X80.691 Y85.186 E9.47817
G1 X81.815 Y84.715 E9.50109
G1 X82.772 Y84.397 E9.52006
G1 X84.544 Y83.956 E9.55441
G1 X85.536 Y83.789 E9.57333
G1 X86.748 Y83.678 E9.59623
G1 X87.55 Y83.653 E9.61132
G1 X88.768 Y83.69 E9.63424
G1 X89.768 Y83.797 E9.65316
G1 X91.563 Y84.129 E9.6875
G1 X92.539 Y84.388 E9.70649
G1 X93.69 Y84.79 E9.72942
G1 X94.431 Y85.101 E9.74454
G1 X95.523 Y85.639 E9.76744
G1 X96.217 Y86.034 E9.78246
G1 X97.236 Y86.7 E9.80536
G1 X97.888 Y87.186 E9.82066
G1 X98.817 Y87.972 E9.84355
G1 X99.394 Y88.524 E9.85857
G1 X100.221 Y89.416 E9.88145
G1 X100.39 Y89.622 E9.88646
G1 X100.682 Y89.265 E9.89514
G1 X101.232 Y88.671 E9.91036
G1 X102.112 Y87.831 E9.93325
G1 X102.719 Y87.317 E9.94821
G1 X103.695 Y86.588 E9.97112
G1 X104.379 Y86.141 E9.98649
G1 X105.438 Y85.538 E10.00942
G1 X106.153 Y85.186 E10.02441
G1 X107.277 Y84.715 E10.04733
G1 X108.234 Y84.397 E10.0663
G1 X110.006 Y83.956 E10.10065
G1 X110.998 Y83.789 E10.11957
G1 X112.21 Y83.678 E10.14247
G1 X113.012 Y83.653 E10.15756
G1 X114.23 Y83.69 E10.18048
G1 X115.231 Y83.797 E10.19942
G1 X117.025 Y84.129 E10.23374
G1 X117.999 Y84.388 E10.2527
G1 X119.151 Y84.79 E10.27565
G1 X119.893 Y85.101 E10.29078
G1 X120.985 Y85.639 E10.31368
G1 X121.681 Y86.036 E10.32875
G1 X122.699 Y86.702 E10.35164
G1 X123.346 Y87.184 E10.36681
G1 X124.276 Y87.97 E10.38972
G1 X124.856 Y88.524 E10.40481
G1 X125.683 Y89.416 E10.42769
G1 X126.194 Y90.04 E10.44286
G1 X126.908 Y91.029 E10.4658
G1 X127.338 Y91.708 E10.48092
G1 X127.925 Y92.774 E10.50381
G1 X128.271 Y93.504 E10.51901
G1 X128.724 Y94.635 E10.54193
G1 X129.025 Y95.591 E10.56078
G1 X129.439 Y97.367 E10.59508
G1 X129.592 Y98.362 E10.61402
G1 X129.685 Y99.578 E10.63696
G1 X129.697 Y100.385 E10.65214
G1 X129.641 Y101.601 E10.67504
G1 X129.519 Y102.594 E10.69386
G1 X129.16 Y104.385 E10.72822
G1 X128.886 Y105.36 E10.74727
G1 X128.467 Y106.503 E10.77017
G1 X128.144 Y107.241 E10.78532
G1 X127.589 Y108.324 E10.80821
G1 X127.187 Y109.004 E10.82307
G1 X126.506 Y110.014 E10.84599
G1 X125.875 Y110.81 E10.86509
